src/icons/grid.svg

<svg xmlns="http://www.w3.org/2000/svg" width="512" height="512" viewBox="0 0 512 512">
    <path d="M159.9 146.7c0 3.7-3 6.7-6.7 6.7h-50.5c-3.7 0-6.7-3-6.7-6.7V96.2c0-3.7 3-6.7 6.7-6.7h50.5c3.7 0 6.7 3 6.7 6.7v50.5zm128.1 0c0 3.7-3 6.7-6.7 6.7h-50.5c-3.7 0-6.7-3-6.7-6.7V96.2c0-3.7 3-6.7 6.7-6.7h50.5c3.7 0 6.7 3 6.7 6.7v50.5zm128 0c0 3.7-3 6.7-6.7 6.7h-50.5c-3.7 0-6.7-3-6.7-6.7V96.2c0-3.7 3-6.7 6.7-6.7h50.5c3.7 0 6.7 3 6.7 6.7v50.5zM159.9 274.8c0 3.7-3 6.7-6.7 6.7h-50.5c-3.7 0-6.7-3-6.7-6.7v-50.5c0-3.7 3-6.7 6.7-6.7h50.5c3.7 0 6.7 3 6.7 6.7v50.5zm128.1 0c0 3.7-3 6.7-6.7 6.7h-50.5c-3.7 0-6.7-3-6.7-6.7v-50.5c0-3.7 3-6.7 6.7-6.7h50.5c3.7 0 6.7 3 6.7 6.7v50.5zm128 0c0 3.7-3 6.7-6.7 6.7h-50.5c-3.7 0-6.7-3-6.7-6.7v-50.5c0-3.7 3-6.7 6.7-6.7h50.5c3.7 0 6.7 3 6.7 6.7v50.5zm-256.1 128c0 3.7-3 6.7-6.7 6.7h-50.5c-3.7 0-6.7-3-6.7-6.7v-50.5c0-3.7 3-6.7 6.7-6.7h50.5c3.7 0 6.7 3 6.7 6.7v50.5zm128.1 0c0 3.7-3 6.7-6.7 6.7h-50.5c-3.7 0-6.7-3-6.7-6.7v-50.5c0-3.7 3-6.7 6.7-6.7h50.5c3.7 0 6.7 3 6.7 6.7v50.5zm128 0c0 3.7-3 6.7-6.7 6.7h-50.5c-3.7 0-6.7-3-6.7-6.7v-50.5c0-3.7 3-6.7 6.7-6.7h50.5c3.7 0 6.7 3 6.7 6.7v50.5z"/>
</svg>

<?xml version="1.0" encoding="UTF-8"?>
<svg width="512px" height="512px" viewBox="0 0 512 512" version="1.1" xmlns="http://www.w3.org/2000/svg" xmlns:xlink="http://www.w3.org/1999/xlink">
    <!-- Generator: Sketch 62 (91390) - https://sketch.com -->
    <title>grid</title>
    <desc>Created with Sketch.</desc>
    <g id="grid" stroke="none" stroke-width="1" fill="none" fill-rule="evenodd">
        <path d="M159.9,146.7 C159.9,150.4 156.9,153.4 153.2,153.4 L102.7,153.4 C99,153.4 96,150.4 96,146.7 L96,96.2 C96,92.5 99,89.5 102.7,89.5 L153.2,89.5 C156.9,89.5 159.9,92.5 159.9,96.2 L159.9,146.7 Z M288,146.7 C288,150.4 285,153.4 281.3,153.4 L230.8,153.4 C227.1,153.4 224.1,150.4 224.1,146.7 L224.1,96.2 C224.1,92.5 227.1,89.5 230.8,89.5 L281.3,89.5 C285,89.5 288,92.5 288,96.2 L288,146.7 Z M416,146.7 C416,150.4 413,153.4 409.3,153.4 L358.8,153.4 C355.1,153.4 352.1,150.4 352.1,146.7 L352.1,96.2 C352.1,92.5 355.1,89.5 358.8,89.5 L409.3,89.5 C413,89.5 416,92.5 416,96.2 L416,146.7 Z M159.9,274.8 C159.9,278.5 156.9,281.5 153.2,281.5 L102.7,281.5 C99,281.5 96,278.5 96,274.8 L96,224.3 C96,220.6 99,217.6 102.7,217.6 L153.2,217.6 C156.9,217.6 159.9,220.6 159.9,224.3 L159.9,274.8 Z M288,274.8 C288,278.5 285,281.5 281.3,281.5 L230.8,281.5 C227.1,281.5 224.1,278.5 224.1,274.8 L224.1,224.3 C224.1,220.6 227.1,217.6 230.8,217.6 L281.3,217.6 C285,217.6 288,220.6 288,224.3 L288,274.8 Z M416,274.8 C416,278.5 413,281.5 409.3,281.5 L358.8,281.5 C355.1,281.5 352.1,278.5 352.1,274.8 L352.1,224.3 C352.1,220.6 355.1,217.6 358.8,217.6 L409.3,217.6 C413,217.6 416,220.6 416,224.3 L416,274.8 Z M159.9,402.8 C159.9,406.5 156.9,409.5 153.2,409.5 L102.7,409.5 C99,409.5 96,406.5 96,402.8 L96,352.3 C96,348.6 99,345.6 102.7,345.6 L153.2,345.6 C156.9,345.6 159.9,348.6 159.9,352.3 L159.9,402.8 Z M288,402.8 C288,406.5 285,409.5 281.3,409.5 L230.8,409.5 C227.1,409.5 224.1,406.5 224.1,402.8 L224.1,352.3 C224.1,348.6 227.1,345.6 230.8,345.6 L281.3,345.6 C285,345.6 288,348.6 288,352.3 L288,402.8 Z M416,402.8 C416,406.5 413,409.5 409.3,409.5 L358.8,409.5 C355.1,409.5 352.1,406.5 352.1,402.8 L352.1,352.3 C352.1,348.6 355.1,345.6 358.8,345.6 L409.3,345.6 C413,345.6 416,348.6 416,352.3 L416,402.8 Z" id="Shape" fill="#000000" fill-rule="nonzero"></path>
    </g>
</svg>
